X:15165
T:Sean Reid's Fancy
M:4/4
L:1/8
S:Tommy Peoples, Donegal (fiddle)
R:Reel
D:From a 70's demo tape
N:As played
Z:Bernie Stocks
K:G
B3G ABAG | (3.F.F.D AD BDAD | DG~G2 G2ge | fd{e}dc ABcA |
~B3G ABAG | (3.F.F.D AD BDAD | DG~G2 G2ge | fdcA BGG2 :: 
dg{a}gf (3gfg ag | fAde fdcA | dg{a}gf (3gfg fg | a-bga bgga |
bg{a}gf g2ag | fAde ~f3g | a2(3.b.a.g abag | fd{e}dc ABcA :|
